report_00007_2020-12-11T15:55:29.892Z/first-meaningful-paint/samples/empty/raw/values.svg

<svg width="640" height="490" xmlns="http://www.w3.org/2000/svg" xmlns:xlink="http://www.w3.org/1999/xlink"><path fill="#fff" d="M0 0h640v490H0z"/><defs><path id="d" stroke-width=".222" stroke="currentColor" d="M-1-1h2v2h-2z"/><path id="b" stroke-width=".222" stroke="currentColor" d="M0-1.33l-1.33 2h2.66z"/><path id="f" stroke-width=".222" stroke="currentColor" d="M0 1.33L1.265.411.782-1.067l-1.564-.009-.483 1.487z"/><use xlink:href="#b" id="c" stroke="currentColor" transform="rotate(180)"/><use xlink:href="#d" id="e" stroke="currentColor" transform="rotate(45)"/><circle id="a" stroke-width=".222" stroke="currentColor" cx="0" cy="0" r="1"/></defs><g fill="none" color="#000" stroke="currentColor"><path stroke="#000" d="M53.9 398.4h9m552.1 0h-9"/><text transform="translate(45.6 402.3)" stroke="none" fill="#000" font-family="Arial" font-size="12" text-anchor="end"><tspan>626</tspan></text></g><g fill="none" color="#000" stroke="currentColor"><path stroke="#000" d="M53.9 327.8h9m552.1 0h-9"/><text transform="translate(45.6 331.7)" stroke="none" fill="#000" font-family="Arial" font-size="12" text-anchor="end"><tspan>628</tspan></text></g><g fill="none" color="#000" stroke="currentColor"><path stroke="#000" d="M53.9 257.2h9m552.1 0h-9"/><text transform="translate(45.6 261.1)" stroke="none" fill="#000" font-family="Arial" font-size="12" text-anchor="end"><tspan>630</tspan></text></g><g fill="none" color="#000" stroke="currentColor"><path stroke="#000" d="M53.9 186.7h9m552.1 0h-9"/><text transform="translate(45.6 190.6)" stroke="none" fill="#000" font-family="Arial" font-size="12" text-anchor="end"><tspan>632</tspan></text></g><g fill="none" color="#000" stroke="currentColor"><path stroke="#000" d="M53.9 116.1h9m552.1 0h-9"/><text transform="translate(45.6 120)" stroke="none" fill="#000" font-family="Arial" font-size="12" text-anchor="end"><tspan>634</tspan></text></g><g fill="none" color="#000" stroke="currentColor"><path stroke="#000" d="M53.9 45.5h9m552.1 0h-9"/><text transform="translate(45.6 49.4)" stroke="none" fill="#000" font-family="Arial" font-size="12" text-anchor="end"><tspan>636</tspan></text></g><g fill="none" color="#000" stroke="currentColor"><path stroke="#000" d="M53.9 436v-9m0-408.9v9"/><text transform="translate(53.9 457.9)" stroke="none" fill="#000" font-family="Arial" font-size="12" text-anchor="middle"><tspan>0</tspan></text></g><g fill="none" color="#000" stroke="currentColor"><path stroke="#000" d="M110.6 436v-9m0-408.9v9"/><text transform="translate(110.6 457.9)" stroke="none" fill="#000" font-family="Arial" font-size="12" text-anchor="middle"><tspan>10</tspan></text></g><g fill="none" color="#000" stroke="currentColor"><path stroke="#000" d="M167.3 436v-9m0-408.9v9"/><text transform="translate(167.3 457.9)" stroke="none" fill="#000" font-family="Arial" font-size="12" text-anchor="middle"><tspan>20</tspan></text></g><g fill="none" color="#000" stroke="currentColor"><path stroke="#000" d="M223.9 436v-9m0-408.9v9"/><text transform="translate(223.9 457.9)" stroke="none" fill="#000" font-family="Arial" font-size="12" text-anchor="middle"><tspan>30</tspan></text></g><g fill="none" color="#000" stroke="currentColor"><path stroke="#000" d="M280.6 436v-9m0-408.9v9"/><text transform="translate(280.6 457.9)" stroke="none" fill="#000" font-family="Arial" font-size="12" text-anchor="middle"><tspan>40</tspan></text></g><g fill="none" color="#000" stroke="currentColor"><path stroke="#000" d="M337.3 436v-9m0-408.9v9"/><text transform="translate(337.3 457.9)" stroke="none" fill="#000" font-family="Arial" font-size="12" text-anchor="middle"><tspan>50</tspan></text></g><g fill="none" color="#000" stroke="currentColor"><path stroke="#000" d="M394 436v-9m0-408.9v9"/><text transform="translate(394 457.9)" stroke="none" fill="#000" font-family="Arial" font-size="12" text-anchor="middle"><tspan>60</tspan></text></g><g fill="none" color="#000" stroke="currentColor"><path stroke="#000" d="M450.6 436v-9m0-408.9v9"/><text transform="translate(450.6 457.9)" stroke="none" fill="#000" font-family="Arial" font-size="12" text-anchor="middle"><tspan>70</tspan></text></g><g fill="none" color="#000" stroke="currentColor"><path stroke="#000" d="M507.3 436v-9m0-408.9v9"/><text transform="translate(507.3 457.9)" stroke="none" fill="#000" font-family="Arial" font-size="12" text-anchor="middle"><tspan>80</tspan></text></g><g fill="none" color="#000" stroke="currentColor"><path stroke="#000" d="M564 436v-9m0-408.9v9"/><text transform="translate(564 457.9)" stroke="none" fill="#000" font-family="Arial" font-size="12" text-anchor="middle"><tspan>90</tspan></text></g><path stroke="#000" d="M53.9 18.1V436H615V18.1H53.9z" fill="none" color="#000"/><text transform="translate(175.7 475.9)" stroke="none" fill="#000" font-family="Arial" font-size="12" text-anchor="end" color="#000"><tspan>raw</tspan></text><path stroke="#9400D3" d="M184 472h42.2M53.9 43.1l5.7 368 5.6-94.1 5.7-96.4 5.7 95.1 5.6-33.8 5.7 61.9 5.7-28.9 5.6 38.4 5.7 61.8 5.7 8 5.6-102.6 5.7-3.3 5.7-139.4 5.6 103h5.7l5.7 40.3 5.7-1.7 5.6-33.9 5.7 34.7 5.7-.5 5.6 68.8 5.7-67.3 5.7.5 5.6 1.6 5.7 32.1 5.7-35.6 5.6.6 5.7-36.1 5.7-.1 5.6-138.7 5.7 140.2 5.7-.1 5.6-1.1 5.7-141.2 5.7 141.3 5.6 100.7 5.7-64.1 5.7 36.2 5.6-44.5 5.7 42.2 5.7-33.7 5.6.6 5.7-38.8 5.7 75.4 5.6 30.8 5.7-70.1 5.7-4.8 5.6-100.8 5.7-187.6 5.7 364.5 5.7-138.4 5.6 1.2 5.7-109.8 5.7 71.7 5.6 108.5 5.7-2.2 5.7-36.5 5.6 98.4 5.7-59.4 5.7-74 5.6 105.4 5.7-36.1 5.7 1.2 5.6 35.3 5.7-33.5 5.7 104.5 5.6-69.1 5.7-146.2 5.7 73 5.6 35.9 5.7 105.9 5.7-106.3 5.6 1.6 5.7-33 5.7 33.8 5.6.8 5.7 61 5.7-98.6 5.6 35.7 5.7 106.6 5.7-108.3 5.6 36.6 5.7-70.5 5.7 68.3 5.7 30.5 5.6 30 5.7-96.5 5.7 38.5 5.6-34.5 5.7-1.8 5.7-3 5.6 107.1 5.7-141.5 5.7 39.2 5.6-75.2 5.7 75.7 5.7 29.8 5.6 72.6 5.7-280.2" fill="none" color="#000"/><text transform="translate(375.6 475.9)" stroke="none" fill="#000" font-family="Arial" font-size="12" text-anchor="end" color="#000"><tspan>score p10=2336</tspan></text><path stroke="#009E73" d="M383.9 472h42.2" fill="none" color="#000"/><text transform="translate(575.5 475.9)" stroke="none" fill="#000" font-family="Arial" font-size="12" text-anchor="end" color="#000"><tspan>score median=4000</tspan></text><path stroke="#56B4E9" d="M583.8 472H626" fill="none" color="#000"/><g fill="none" color="#000" stroke="currentColor"><path stroke="#000" d="M53.9 18.1V436H615V18.1H53.9z"/></g></svg>

<?xml version="1.0" encoding="utf-8"  standalone="no"?>
<svg 
 width="640" height="490"
 viewBox="0 0 640 490"
 xmlns="http://www.w3.org/2000/svg"
 xmlns:xlink="http://www.w3.org/1999/xlink"
>

<title>Gnuplot</title>
<desc>Produced by GNUPLOT 5.4 patchlevel 0 </desc>

<g id="gnuplot_canvas">

<rect x="0" y="0" width="640" height="490" fill="#ffffff"/>
<defs>

	<circle id='gpDot' r='0.5' stroke-width='0.5' stroke='currentColor'/>
	<path id='gpPt0' stroke-width='0.222' stroke='currentColor' d='M-1,0 h2 M0,-1 v2'/>
	<path id='gpPt1' stroke-width='0.222' stroke='currentColor' d='M-1,-1 L1,1 M1,-1 L-1,1'/>
	<path id='gpPt2' stroke-width='0.222' stroke='currentColor' d='M-1,0 L1,0 M0,-1 L0,1 M-1,-1 L1,1 M-1,1 L1,-1'/>
	<rect id='gpPt3' stroke-width='0.222' stroke='currentColor' x='-1' y='-1' width='2' height='2'/>
	<rect id='gpPt4' stroke-width='0.222' stroke='currentColor' fill='currentColor' x='-1' y='-1' width='2' height='2'/>
	<circle id='gpPt5' stroke-width='0.222' stroke='currentColor' cx='0' cy='0' r='1'/>
	<use xlink:href='#gpPt5' id='gpPt6' fill='currentColor' stroke='none'/>
	<path id='gpPt7' stroke-width='0.222' stroke='currentColor' d='M0,-1.33 L-1.33,0.67 L1.33,0.67 z'/>
	<use xlink:href='#gpPt7' id='gpPt8' fill='currentColor' stroke='none'/>
	<use xlink:href='#gpPt7' id='gpPt9' stroke='currentColor' transform='rotate(180)'/>
	<use xlink:href='#gpPt9' id='gpPt10' fill='currentColor' stroke='none'/>
	<use xlink:href='#gpPt3' id='gpPt11' stroke='currentColor' transform='rotate(45)'/>
	<use xlink:href='#gpPt11' id='gpPt12' fill='currentColor' stroke='none'/>
	<path id='gpPt13' stroke-width='0.222' stroke='currentColor' d='M0,1.330 L1.265,0.411 L0.782,-1.067 L-0.782,-1.076 L-1.265,0.411 z'/>
	<use xlink:href='#gpPt13' id='gpPt14' fill='currentColor' stroke='none'/>
	<filter id='textbox' filterUnits='objectBoundingBox' x='0' y='0' height='1' width='1'>
	  <feFlood flood-color='#FFFFFF' flood-opacity='1' result='bgnd'/>
	  <feComposite in='SourceGraphic' in2='bgnd' operator='atop'/>
	</filter>
	<filter id='greybox' filterUnits='objectBoundingBox' x='0' y='0' height='1' width='1'>
	  <feFlood flood-color='lightgrey' flood-opacity='1' result='grey'/>
	  <feComposite in='SourceGraphic' in2='grey' operator='atop'/>
	</filter>
</defs>
<g fill="none" color="#FFFFFF" stroke="black" stroke-width="1.00" stroke-linecap="butt" stroke-linejoin="miter">
</g>
<g fill="none" color="black" stroke="currentColor" stroke-width="1.00" stroke-linecap="butt" stroke-linejoin="miter">
	<path stroke='black'  d='M53.9,398.4 L62.9,398.4 M615.0,398.4 L606.0,398.4  '/>	<g transform="translate(45.6,402.3)" stroke="none" fill="black" font-family="Arial" font-size="12.00"  text-anchor="end">
		<text><tspan font-family="Arial" > 626</tspan></text>
	</g>
</g>
<g fill="none" color="black" stroke="currentColor" stroke-width="1.00" stroke-linecap="butt" stroke-linejoin="miter">
	<path stroke='black'  d='M53.9,327.8 L62.9,327.8 M615.0,327.8 L606.0,327.8  '/>	<g transform="translate(45.6,331.7)" stroke="none" fill="black" font-family="Arial" font-size="12.00"  text-anchor="end">
		<text><tspan font-family="Arial" > 628</tspan></text>
	</g>
</g>
<g fill="none" color="black" stroke="currentColor" stroke-width="1.00" stroke-linecap="butt" stroke-linejoin="miter">
	<path stroke='black'  d='M53.9,257.2 L62.9,257.2 M615.0,257.2 L606.0,257.2  '/>	<g transform="translate(45.6,261.1)" stroke="none" fill="black" font-family="Arial" font-size="12.00"  text-anchor="end">
		<text><tspan font-family="Arial" > 630</tspan></text>
	</g>
</g>
<g fill="none" color="black" stroke="currentColor" stroke-width="1.00" stroke-linecap="butt" stroke-linejoin="miter">
	<path stroke='black'  d='M53.9,186.7 L62.9,186.7 M615.0,186.7 L606.0,186.7  '/>	<g transform="translate(45.6,190.6)" stroke="none" fill="black" font-family="Arial" font-size="12.00"  text-anchor="end">
		<text><tspan font-family="Arial" > 632</tspan></text>
	</g>
</g>
<g fill="none" color="black" stroke="currentColor" stroke-width="1.00" stroke-linecap="butt" stroke-linejoin="miter">
	<path stroke='black'  d='M53.9,116.1 L62.9,116.1 M615.0,116.1 L606.0,116.1  '/>	<g transform="translate(45.6,120.0)" stroke="none" fill="black" font-family="Arial" font-size="12.00"  text-anchor="end">
		<text><tspan font-family="Arial" > 634</tspan></text>
	</g>
</g>
<g fill="none" color="black" stroke="currentColor" stroke-width="1.00" stroke-linecap="butt" stroke-linejoin="miter">
	<path stroke='black'  d='M53.9,45.5 L62.9,45.5 M615.0,45.5 L606.0,45.5  '/>	<g transform="translate(45.6,49.4)" stroke="none" fill="black" font-family="Arial" font-size="12.00"  text-anchor="end">
		<text><tspan font-family="Arial" > 636</tspan></text>
	</g>
</g>
<g fill="none" color="black" stroke="currentColor" stroke-width="1.00" stroke-linecap="butt" stroke-linejoin="miter">
	<path stroke='black'  d='M53.9,436.0 L53.9,427.0 M53.9,18.1 L53.9,27.1  '/>	<g transform="translate(53.9,457.9)" stroke="none" fill="black" font-family="Arial" font-size="12.00"  text-anchor="middle">
		<text><tspan font-family="Arial" > 0</tspan></text>
	</g>
</g>
<g fill="none" color="black" stroke="currentColor" stroke-width="1.00" stroke-linecap="butt" stroke-linejoin="miter">
	<path stroke='black'  d='M110.6,436.0 L110.6,427.0 M110.6,18.1 L110.6,27.1  '/>	<g transform="translate(110.6,457.9)" stroke="none" fill="black" font-family="Arial" font-size="12.00"  text-anchor="middle">
		<text><tspan font-family="Arial" > 10</tspan></text>
	</g>
</g>
<g fill="none" color="black" stroke="currentColor" stroke-width="1.00" stroke-linecap="butt" stroke-linejoin="miter">
	<path stroke='black'  d='M167.3,436.0 L167.3,427.0 M167.3,18.1 L167.3,27.1  '/>	<g transform="translate(167.3,457.9)" stroke="none" fill="black" font-family="Arial" font-size="12.00"  text-anchor="middle">
		<text><tspan font-family="Arial" > 20</tspan></text>
	</g>
</g>
<g fill="none" color="black" stroke="currentColor" stroke-width="1.00" stroke-linecap="butt" stroke-linejoin="miter">
	<path stroke='black'  d='M223.9,436.0 L223.9,427.0 M223.9,18.1 L223.9,27.1  '/>	<g transform="translate(223.9,457.9)" stroke="none" fill="black" font-family="Arial" font-size="12.00"  text-anchor="middle">
		<text><tspan font-family="Arial" > 30</tspan></text>
	</g>
</g>
<g fill="none" color="black" stroke="currentColor" stroke-width="1.00" stroke-linecap="butt" stroke-linejoin="miter">
	<path stroke='black'  d='M280.6,436.0 L280.6,427.0 M280.6,18.1 L280.6,27.1  '/>	<g transform="translate(280.6,457.9)" stroke="none" fill="black" font-family="Arial" font-size="12.00"  text-anchor="middle">
		<text><tspan font-family="Arial" > 40</tspan></text>
	</g>
</g>
<g fill="none" color="black" stroke="currentColor" stroke-width="1.00" stroke-linecap="butt" stroke-linejoin="miter">
	<path stroke='black'  d='M337.3,436.0 L337.3,427.0 M337.3,18.1 L337.3,27.1  '/>	<g transform="translate(337.3,457.9)" stroke="none" fill="black" font-family="Arial" font-size="12.00"  text-anchor="middle">
		<text><tspan font-family="Arial" > 50</tspan></text>
	</g>
</g>
<g fill="none" color="black" stroke="currentColor" stroke-width="1.00" stroke-linecap="butt" stroke-linejoin="miter">
	<path stroke='black'  d='M394.0,436.0 L394.0,427.0 M394.0,18.1 L394.0,27.1  '/>	<g transform="translate(394.0,457.9)" stroke="none" fill="black" font-family="Arial" font-size="12.00"  text-anchor="middle">
		<text><tspan font-family="Arial" > 60</tspan></text>
	</g>
</g>
<g fill="none" color="black" stroke="currentColor" stroke-width="1.00" stroke-linecap="butt" stroke-linejoin="miter">
	<path stroke='black'  d='M450.6,436.0 L450.6,427.0 M450.6,18.1 L450.6,27.1  '/>	<g transform="translate(450.6,457.9)" stroke="none" fill="black" font-family="Arial" font-size="12.00"  text-anchor="middle">
		<text><tspan font-family="Arial" > 70</tspan></text>
	</g>
</g>
<g fill="none" color="black" stroke="currentColor" stroke-width="1.00" stroke-linecap="butt" stroke-linejoin="miter">
	<path stroke='black'  d='M507.3,436.0 L507.3,427.0 M507.3,18.1 L507.3,27.1  '/>	<g transform="translate(507.3,457.9)" stroke="none" fill="black" font-family="Arial" font-size="12.00"  text-anchor="middle">
		<text><tspan font-family="Arial" > 80</tspan></text>
	</g>
</g>
<g fill="none" color="black" stroke="currentColor" stroke-width="1.00" stroke-linecap="butt" stroke-linejoin="miter">
	<path stroke='black'  d='M564.0,436.0 L564.0,427.0 M564.0,18.1 L564.0,27.1  '/>	<g transform="translate(564.0,457.9)" stroke="none" fill="black" font-family="Arial" font-size="12.00"  text-anchor="middle">
		<text><tspan font-family="Arial" > 90</tspan></text>
	</g>
</g>
<g fill="none" color="black" stroke="currentColor" stroke-width="1.00" stroke-linecap="butt" stroke-linejoin="miter">
</g>
<g fill="none" color="black" stroke="currentColor" stroke-width="1.00" stroke-linecap="butt" stroke-linejoin="miter">
	<path stroke='black'  d='M53.9,18.1 L53.9,436.0 L615.0,436.0 L615.0,18.1 L53.9,18.1 Z  '/></g>
<g fill="none" color="black" stroke="currentColor" stroke-width="1.00" stroke-linecap="butt" stroke-linejoin="miter">
</g>
	<g id="gnuplot_plot_1" ><title>raw</title>
<g fill="none" color="black" stroke="currentColor" stroke-width="1.00" stroke-linecap="butt" stroke-linejoin="miter">
	<g transform="translate(175.7,475.9)" stroke="none" fill="black" font-family="Arial" font-size="12.00"  text-anchor="end">
		<text><tspan font-family="Arial" >raw</tspan></text>
	</g>
</g>
<g fill="none" color="black" stroke="currentColor" stroke-width="1.00" stroke-linecap="butt" stroke-linejoin="miter">
	<path stroke='rgb(148,   0, 211)'  d='M184.0,472.0 L226.2,472.0 M53.9,43.1 L59.6,411.1 L65.2,317.0 L70.9,220.6 L76.6,315.7 L82.2,281.9
		L87.9,343.8 L93.6,314.9 L99.2,353.3 L104.9,415.1 L110.6,423.1 L116.2,320.5 L121.9,317.2 L127.6,177.8
		L133.2,280.8 L138.9,280.8 L144.6,321.1 L150.3,319.4 L155.9,285.5 L161.6,320.2 L167.3,319.7 L172.9,388.5
		L178.6,321.2 L184.3,321.7 L189.9,323.3 L195.6,355.4 L201.3,319.8 L206.9,320.4 L212.6,284.3 L218.3,284.2
		L223.9,145.5 L229.6,285.7 L235.3,285.6 L240.9,284.5 L246.6,143.3 L252.3,284.6 L257.9,385.3 L263.6,321.2
		L269.3,357.4 L274.9,312.9 L280.6,355.1 L286.3,321.4 L291.9,322.0 L297.6,283.2 L303.3,358.6 L308.9,389.4
		L314.6,319.3 L320.3,314.5 L325.9,213.7 L331.6,26.1 L337.3,390.6 L343.0,252.2 L348.6,253.4 L354.3,143.6
		L360.0,215.3 L365.6,323.8 L371.3,321.6 L377.0,285.1 L382.6,383.5 L388.3,324.1 L394.0,250.1 L399.6,355.5
		L405.3,319.4 L411.0,320.6 L416.6,355.9 L422.3,322.4 L428.0,426.9 L433.6,357.8 L439.3,211.6 L445.0,284.6
		L450.6,320.5 L456.3,426.4 L462.0,320.1 L467.6,321.7 L473.3,288.7 L479.0,322.5 L484.6,323.3 L490.3,384.3
		L496.0,285.7 L501.6,321.4 L507.3,428.0 L513.0,319.7 L518.6,356.3 L524.3,285.8 L530.0,354.1 L535.7,384.6
		L541.3,414.6 L547.0,318.1 L552.7,356.6 L558.3,322.1 L564.0,320.3 L569.7,317.3 L575.3,424.4 L581.0,282.9
		L586.7,322.1 L592.3,246.9 L598.0,322.6 L603.7,352.4 L609.3,425.0 L615.0,144.8  '/></g>
	</g>
	<g id="gnuplot_plot_2" ><title>score p10=2336</title>
<g fill="none" color="black" stroke="currentColor" stroke-width="1.00" stroke-linecap="butt" stroke-linejoin="miter">
	<g transform="translate(375.6,475.9)" stroke="none" fill="black" font-family="Arial" font-size="12.00"  text-anchor="end">
		<text><tspan font-family="Arial" >score p10=2336</tspan></text>
	</g>
</g>
<g fill="none" color="black" stroke="currentColor" stroke-width="1.00" stroke-linecap="butt" stroke-linejoin="miter">
	<path stroke='rgb(  0, 158, 115)'  d='M383.9,472.0 L426.1,472.0  '/></g>
	</g>
	<g id="gnuplot_plot_3" ><title>score median=4000</title>
<g fill="none" color="black" stroke="currentColor" stroke-width="1.00" stroke-linecap="butt" stroke-linejoin="miter">
	<g transform="translate(575.5,475.9)" stroke="none" fill="black" font-family="Arial" font-size="12.00"  text-anchor="end">
		<text><tspan font-family="Arial" >score median=4000</tspan></text>
	</g>
</g>
<g fill="none" color="black" stroke="currentColor" stroke-width="1.00" stroke-linecap="butt" stroke-linejoin="miter">
	<path stroke='rgb( 86, 180, 233)'  d='M583.8,472.0 L626.0,472.0  '/></g>
	</g>
<g fill="none" color="#FFFFFF" stroke="rgb( 86, 180, 233)" stroke-width="2.00" stroke-linecap="butt" stroke-linejoin="miter">
</g>
<g fill="none" color="black" stroke="currentColor" stroke-width="2.00" stroke-linecap="butt" stroke-linejoin="miter">
</g>
<g fill="none" color="black" stroke="black" stroke-width="1.00" stroke-linecap="butt" stroke-linejoin="miter">
</g>
<g fill="none" color="black" stroke="currentColor" stroke-width="1.00" stroke-linecap="butt" stroke-linejoin="miter">
	<path stroke='black'  d='M53.9,18.1 L53.9,436.0 L615.0,436.0 L615.0,18.1 L53.9,18.1 Z  '/></g>
<g fill="none" color="black" stroke="currentColor" stroke-width="1.00" stroke-linecap="butt" stroke-linejoin="miter">
</g>
</g>
</svg>
